X: 6880
T: Charrada De Bercimuelle
R: three-two
M: 3/2
K: Aminor
M:5/8
Ac eze|de c3|Ac efe|de c3|
B/c/d c2A|BA G3|B/c/d c2A|Bc A3:|
A2 cdz|e2 d2c|AB c2A|Bc d2c|
AB c2A|Bc d2c|AB c2A|Bc A3|A2 A3||
|:B/c/d c2A|BA G3|B/c/d c2A|Bc A3|A2 A3:|

